_site/images/features/icons/sitemap.svg

<svg height="34" viewBox="0 0 34 34" width="34" xmlns="http://www.w3.org/2000/svg"><path d="m32.4545455 21.6363636h-3.0909091v-4.6363636c0-.853531-.6919236-1.5454545-1.5454546-1.5454545h-9.2727273v-3.0909091h3.0909091c.853531 0 1.5454546-.6919236 1.5454546-1.5454546v-9.27272725c0-.85353098-.6919236-1.54545455-1.5454546-1.54545455h-9.2727272c-.853531 0-1.5454546.69192357-1.5454546 1.54545455v9.27272725c0 .853531.6919236 1.5454546 1.5454546 1.5454546h3.0909091v3.0909091h-9.27272732c-.85353098 0-1.54545454.6919235-1.54545454 1.5454545v4.6363636h-3.09090909c-.85353098 0-1.54545455.6919236-1.54545455 1.5454546v9.2727273c0 .8535309.69192357 1.5454545 1.54545455 1.5454545h9.27272725c.853531 0 1.5454546-.6919236 1.5454546-1.5454545v-9.2727273c0-.853531-.6919236-1.5454546-1.5454546-1.5454546h-3.09090907v-3.0909091h18.54545457v3.0909091h-3.0909091c-.853531 0-1.5454546.6919236-1.5454546 1.5454546v9.2727273c0 .8535309.6919236 1.5454545 1.5454546 1.5454545h9.2727273c.8535309 0 1.5454545-.6919236 1.5454545-1.5454545v-9.2727273c0-.853531-.6919236-1.5454546-1.5454545-1.5454546zm-23.18181823 3.0909091v6.1818182h-6.18181818v-6.1818182zm4.63636363-15.45454543v-6.18181818h6.1818182v6.18181818zm17 21.63636363h-6.1818182v-6.1818182h6.1818182z" fill="#0b7a76"/></svg>

<?xml version="1.0" encoding="UTF-8"?>
<svg width="34px" height="34px" viewBox="0 0 34 34" version="1.1" xmlns="http://www.w3.org/2000/svg" xmlns:xlink="http://www.w3.org/1999/xlink">
    <!-- Generator: Sketch 52.6 (67491) - http://www.bohemiancoding.com/sketch -->
    <title>sitemap</title>
    <desc>Created with Sketch.</desc>
    <g id="Landing-page" stroke="none" stroke-width="1" fill="none" fill-rule="evenodd">
        <g id="1.3--Features" transform="translate(-173.000000, -2637.000000)" fill="#0B7A76" fill-rule="nonzero">
            <g id="Group-5" transform="translate(173.000000, 2637.000000)">
                <g id="sitemap">
                    <path d="M32.4545455,21.6363636 L29.3636364,21.6363636 L29.3636364,17 C29.3636364,16.146469 28.6717128,15.4545455 27.8181818,15.4545455 L18.5454545,15.4545455 L18.5454545,12.3636364 L21.6363636,12.3636364 C22.4898946,12.3636364 23.1818182,11.6717128 23.1818182,10.8181818 L23.1818182,1.54545455 C23.1818182,0.691923568 22.4898946,0 21.6363636,0 L12.3636364,0 C11.5101054,0 10.8181818,0.691923568 10.8181818,1.54545455 L10.8181818,10.8181818 C10.8181818,11.6717128 11.5101054,12.3636364 12.3636364,12.3636364 L15.4545455,12.3636364 L15.4545455,15.4545455 L6.18181818,15.4545455 C5.3282872,15.4545455 4.63636364,16.146469 4.63636364,17 L4.63636364,21.6363636 L1.54545455,21.6363636 C0.691923568,21.6363636 0,22.3282872 0,23.1818182 L0,32.4545455 C0,33.3080764 0.691923568,34 1.54545455,34 L10.8181818,34 C11.6717128,34 12.3636364,33.3080764 12.3636364,32.4545455 L12.3636364,23.1818182 C12.3636364,22.3282872 11.6717128,21.6363636 10.8181818,21.6363636 L7.72727273,21.6363636 L7.72727273,18.5454545 L26.2727273,18.5454545 L26.2727273,21.6363636 L23.1818182,21.6363636 C22.3282872,21.6363636 21.6363636,22.3282872 21.6363636,23.1818182 L21.6363636,32.4545455 C21.6363636,33.3080764 22.3282872,34 23.1818182,34 L32.4545455,34 C33.3080764,34 34,33.3080764 34,32.4545455 L34,23.1818182 C34,22.3282872 33.3080764,21.6363636 32.4545455,21.6363636 Z M9.27272727,24.7272727 L9.27272727,30.9090909 L3.09090909,30.9090909 L3.09090909,24.7272727 L9.27272727,24.7272727 Z M13.9090909,9.27272727 L13.9090909,3.09090909 L20.0909091,3.09090909 L20.0909091,9.27272727 L13.9090909,9.27272727 Z M30.9090909,30.9090909 L24.7272727,30.9090909 L24.7272727,24.7272727 L30.9090909,24.7272727 L30.9090909,30.9090909 Z" id="Shape"></path>
                </g>
            </g>
        </g>
    </g>
</svg>
